X:1
T:[ID 7-55]
T:[ID 7-55]
T:Bezeichnung standardisiert: Menuet [mit Trio] 5. Menuet [mit Trio]
T:Urheber unbekannt Datum in der hier transkribierten schriftlichen Quelle: 1776 - 1791
C:Urheber unbekannt
C:Datum in der hier transkribierten schriftlichen Quelle: 1776 - 1791
L:1/8
M:3/4
K:Bb
V:1 treble 
V:1
 B4 (3FGA | B2 d2 f2 |{f} e2 (ce) d2 |!p!{F} E2 (CE) D2 |!f! B4 (3FGA | B2 d2 f2 | (3dcB A2 G2 | %7
{G} F6 :: c4 (3ecA | (3Bfe (3dcB (3AGF |!p! c4 (3ecA | (3Bfe (3dcB (3AGF |!f! B4 (3FGA | B2 d2 f2 | %14
 (3gfe d2 c2 |{c} B6 :|[M:3/4]"^Trio" !fermata!F2 F2 (3GFE | D2 z2 z2 | E2 E2 (3FED | C2 z2 z2 | %20
 (DF).F.F.F.F | (FBAG) F2 | GF E2 D2 |{D} C6 :: C2 C2 (3DCB, | D2 z2 z2 | D2 D2 (3EDC | E2 z2 z2 | %28
 (D/C/D/E/) DFFF | (GF)(GA) B2 | (3GFE D2 C2 |{C} B,6 :| %32

